!!!COM:	Bach, Johann Sebastian
!!!OMV:	Wir Christenleut
!!!OTL:	Wir Christenleut
**kern	**fb	**kern	**kern	**kern	**kern
*part5	*part5	*part4	*part3	*part2	*part1
*staff5	*	*staff4	*staff3	*staff2	*staff1
*I"Continuo	*	*I"Voice	*I"Voice	*I"Voice	*I"Voice
*I'Cont.	*	*I'V	*I'V	*I'V	*I'V
*clefF4	*	*clefF4	*clefGv2	*clefG2	*clefG2
*Trd0c0	*	*	*	*	*
*k[f#c#g#]	*	*k[f#c#g#]	*k[f#c#g#]	*k[f#c#g#]	*k[f#c#g#]
*M4/4	*	*M4/4	*M4/4	*M4/4	*M4/4
4F#	.	4F#	8AL	4c#	8f#L
.	.	.	8BJ	.	8g#J
=2	=2	=2	=2	=2	=2
16F#LL	.	16F#LL	4c#	4f#	4a
16G#JJ	.	16G#JJ	.	.	.
16ALL	.	16ALL	.	.	.
16BJJ	.	16BJJ	.	.	.
8c#L	8 #	8c#L	8c#L	4e#X	4g#
8C#J	7	8C#J	8BJ	.	.
4D;	.	4D;	4A;	4f#;	4f#;
4D	6	4D	4B	4f#	8f#L
.	.	.	.	.	8g#J
=3	=3	=3	=3	=3	=3
8C#L	6 4	8C#L	4c#	4f#	4a
8BBJ	.	8BBJ	.	.	.
4C#	5 #	4C#	8c#L	4e#X	4g#
.	.	.	8BJ	.	.
4F#;	.	4F#;	4A;	4c#;	4f#;
4F#	.	4F#	4A	4f#	4cc#
=4	=4	=4	=4	=4	=4
4G#	7	4G#	4B	8f#L	4b
.	6	.	.	8e#XJ	.
8AL	6	8AL	4c#	4f#	4a
8BJ	.	8BJ	.	.	.
4c#;	#	4c#;	4c#;	4e#;	4g#;
4C#	#	4C#	4c#	4e#	4g#
=5	=5	=5	=5	=5	=5
8F#L	.	8F#L	4c#	4f#	4a
8EJ	.	8EnJ	.	.	.
8DL	.	8DL	4d	4f#	4a
8C#J	.	8C#J	.	.	.
8DL	6	8DL	8d	8f#	4b
8BB	.	8BBJ	16eLL	16g#LL	.
.	.	.	16f#JJ	16aJJ	.
8E	.	4E	8eL	4g#	4b
8CC#J	.	.	8dJ	.	.
=6	=6	=6	=6	=6	=6
!!linebreak:original
8AAL	7	8AAL	4c#	8g#L	4cc#
8AJ	6	8AJ	.	8f#J	.
8G#L	#6\ 4 3	8G#L	8BL	8e#XL	4cc#
8F#J	5	8F#J	8AJ	8f#J	.
8F#L	6 4 2	8F#L	8dL	4.g#	4b
8E#XJ	6 5	8E#XJ	8c#J	.	.
8F#L	9	8F#L	8c#L	.	4a
8DJ	3	8DJ	8dJ	8f#	.
=7	=7	=7	=7	=7	=7
8BBL	6 5	8BBL	8dL	4f#	2g#
8GG#J	.	8GG#J	8BJ	.	.
4C#	#	4C#	8G#L	4e#X	.
.	.	.	8c#J	.	.
4FF#;	.	4FF#;	4A;	4c#;	4f#;
8F#L	.	8F#L	4A	4f#	4cc#
8EJ	.	8EnJ	.	.	.
=8	=8	=8	=8	=8	=8
8DL	6	8DL	8BL	8f#L	4b
8C#J	7 #	8C#J	8c#J	8e#XJ	.
4BB#X	7 5	4BB#X	4d#X	4f#	8aL
.	.	.	.	.	8g#J
4C#;	#	4C#;	4c#;	4e#;	4g#;
4AA	6	4AA	4c#	8f#L	4cc#
.	nr5	.	.	8enJ	.
=9	=9	=9	=9	=9	=9
8BBL	#	8BBnL	4F#	8d#XL	4b
8C#J	.	8C#J	.	8eJ	.
8D#XL	6 5	8D#XL	4B	8f#L	4a
8BBJ	.	8BBJ	.	8d#J	.
4E;	.	4E;	4B;	4e;	4g#;
8E#XL	6	8E#XL	4c#	8g#L	4g#
8C#J	.	8C#J	.	8e#XJ	.
=10	=10	=10	=10	=10	=10
!!pagebreak:original
8F#L	5_	4F#	8c#L	4f#	4a
8FF#J	.	.	8AJ	.	.
8F#L	6	8F#L	4dn	8aL	4a
8DJ	.	8DJ	.	8f#J	.
8GnL	5_	4Gn	8dL	4d	4b
8GGnJ	.	.	8BJ	.	.
8G#XL	6	8G#XL	4e	8bL	4b
8EJ	.	8EJ	.	8g#J	.
=11	=11	=11	=11	=11	=11
8AL	5_	4A	8eL	8aL	4cc#
8AAJ	.	.	8c#J	8gnJ	.
8A#XL	6	8A#XL	8f#L	4f#	4cc#
8F#J	.	8F#J	8eJ	.	.
8BL	5_	4B	8dL	8f#L	4b
8BBJ	.	.	8c#J	8e#XJ	.
8B#XL	7 5	8B#XL	4d#X	4f#	8aL
8G#J	.	8G#J	.	.	8g#J
=12	=12	=12	=12	=12	=12
8c#L	4	4c#	8c#L	8f#	2g#
8BJ	.	.	8G#J	16e#XLL	.
.	.	.	.	16d#XJJ	.
8c#L	#	4C#	8c#L	4e#	.
8C#J	.	.	8BJ	.	.
4FF#;	.	4F#;	4An;	4c#;	4f#;
=||	=||	=||	=||	=||	=||
*-	*-	*-	*-	*-	*-
!!!system-decoration: s1,s2,s3,s4,s5
